SVG/Menu.svg

<svg height="40" viewBox="0 0 28 40" width="28" xmlns="http://www.w3.org/2000/svg" xmlns:xlink="http://www.w3.org/1999/xlink"><filter id="a" height="133.7%" width="137.6%" x="-18.8%" y="-11.6%"><feOffset dy="1" in="SourceAlpha" result="shadowOffsetOuter1"/><feGaussianBlur in="shadowOffsetOuter1" result="shadowBlurOuter1" stdDeviation=".9"/><feColorMatrix in="shadowBlurOuter1" result="shadowMatrixOuter1" values="0 0 0 0 0 0 0 0 0 0 0 0 0 0 0 0 0 0 0.65 0"/><feMerge><feMergeNode in="shadowMatrixOuter1"/><feMergeNode in="SourceGraphic"/></feMerge></filter><g fill="none" fill-rule="evenodd" filter="url(#a)" transform="translate(4 2)"><g fill="#fff"><path d="m8 17.47v.53h9v-10h-9v.427z"/><path d="m9.085 17.096-3.606 1.535-4.681-11.089 3.686-1.552z"/><path d="m0 16.422v-16.015l11.591 11.619h-6.781l-.411.124z"/></g><path d="m10 12h5v-1h-5zm0 2h5v-1h-5zm0 2h5v-1h-5zm-1 1h7v-8h-7zm-1.249-.584-1.844.773-3.1-7.373 1.841-.776z" fill="#000"/><path d="m1 2.814v11.188l2.969-2.866.428-.139h4.768z" fill="#000"/></g></svg>

<svg width="28" height="40" viewBox="0 0 28 40" xmlns="http://www.w3.org/2000/svg"><defs><filter x="-18.8%" y="-11.6%" width="137.6%" height="133.7%" filterUnits="objectBoundingBox" id="a"><feOffset dy="1" in="SourceAlpha" result="shadowOffsetOuter1"/><feGaussianBlur stdDeviation=".9" in="shadowOffsetOuter1" result="shadowBlurOuter1"/><feColorMatrix values="0 0 0 0 0 0 0 0 0 0 0 0 0 0 0 0 0 0 0.65 0" in="shadowBlurOuter1" result="shadowMatrixOuter1"/><feMerge><feMergeNode in="shadowMatrixOuter1"/><feMergeNode in="SourceGraphic"/></feMerge></filter></defs><g filter="url(#a)" transform="translate(4 2)" fill="none" fill-rule="evenodd"><path fill="#FFF" d="M8 17.47V18h9V8H8v.427z"/><path fill="#FFF" d="M9.085 17.096l-3.606 1.535L.798 7.542 4.484 5.99z"/><path fill="#FFF" d="M0 16.422V.407l11.591 11.619H4.81l-.411.124z"/><path d="M10 12h5v-1h-5v1zm0 2h5v-1h-5v1zm0 2h5v-1h-5v1zm-1 1h7V9H9v8zm-1.249-.584l-1.844.773-3.1-7.373 1.841-.776z" fill="#000"/><path fill="#000" d="M1 2.814v11.188l2.969-2.866.428-.139h4.768z"/></g></svg>
